X:287
T:Love of the Mountains
C:arranged by Lee Marcus
N:Transcribed by Lee Marcus
R:bluegrass
L:1/8
Q:1/4=225
M:4/4
K:A
zA E2 EF A2 | Bc ce Bc ce | =cB A2 EF A2 | [AE]F [A2E2] A,B, CE | AF EA EF A2 | 
AB Be =cB AF | EF A=c BA FE | A=c ^cf {=c}^cB AF | A2 c/e/e ef ed | {=c}^c4 {=c}^c4 | 
=cB AF DF Ad | =c^c AF EC EA | zF FA EF A2 | AB Be gf ea | Af ed AF =cB | A2 [A2F2] EC EA | 
A,8 | 


